**kern	**kern	**dynam
*part1	*part1	*part1
*staff2	*staff1	*
*I"Piano	*	*
*clefF4	*clefG2	*
*k[b-]	*k[b-]	*
=1	=1	=1
!	!	!LO:DY:a
(12BBB-L	2d 2g	<
12BB-	.	.
12DJ	.	.
12B-L	.	.
!	!LO:TX:b:i:t=sim.	!
12G	.	.
12BB-J	.	.
!	!	!LO:DY:a
12EL	[4c#X 4e [4cc#X	[ f
12C#X	.	.
12BB-J)	.	.
=	=	=
*	*^	*
!	!	!	!LO:DY:a
(12BBB-L	4c#] 4cc#]	2f	>
12BB-	.	.	.
12FJ	.	.	.
12B-L	4d 4dd	.	.
12D	.	.	]
12BB-J	.	.	.
*	*v	*v	*
12EL	4d 4e	.
12D	.	.
12GGJ)	.	.
=	=	=
!	!	!LO:DY:a
(12AAAL	2d 2f	>
12AA	.	.
12DJ	.	.
12AL	.	.
12F	.	.
12AAJ	.	.
12AL	4c#X 4e	.
12E	.	]
12AAJ)	.	.
=	=	=
!	!LO:TX:a:i:t=dim.	!
(12AL	2d	.
12D	.	.
12AAJ	.	.
12FL	.	.
12D	.	.
12AAJ	.	.
!	!	!LO:DY:a
12DL	4r	>
12AA	.	.
12FFJ)	.	.
=	=	=
(8AAL	4r	.
8FF	.	.
8EE	4r	.
!	!	!LO:DY:a
8DDJ)	.	pp ]]
=:|!	=:|!	=:|!
!	!	!LO:DY:a
(8AAL	2.r	>
8FFJ	.	.
4EE	.	.
4DD)	.	]]
*	*clefF4	*
=	=	=
!	!	!LO:DY:a
2DDD; 2DD	2D; 2F 2A 2d	p
==	==	==
*-	*-	*-
!!!system-decoration: {(s1,s2)}
